!!!!SEGMENT: pl-cz--i-155--016_anonim--landler-9.krn
!!!id: 18xx:2525
!!!COM: Anonim
!!!COM-rism: pe30004985
!!!CDT:
!!!CNT:
!!!OTL: Ländler 9
!!!PDT:
!!!SMS-siglum: PL-CZ
!!!SMS-shelfmark: I-155
!!!NIFC-rismID: 1001012545
!!!URL-scan: http://repozytorium.nifc.pl/skany/pl-cz-nut--i-155
!!!ONB-nifc: UWAGA: 10 krótkich Landler numerowanych na pięcioliniach (nr 1-10, odpowiednio 008-017). m.in skan 0026. Uwaga: 5 partii
!!!SMS-variant:
!!!SMS-altvar:
**kern	**kern	**kern	**kern	**kern
*part5	*part4	*part3	*part2	*part1
*staff5	*staff4	*staff3	*staff2	*staff1
*I"Fagotto	*I"Cornu Secondo in B	*I"Cornu Primo in B	*I"Clarinetto Secondo	*I"[Clarinetto Primo]
*I'Fag.	*I'cor 2 in B	*I'cor 1 in B	*I'cl 2	*I'[cl 1]
*clefF4	*clefG2	*clefG2	*clefG2	*clefG2
*	*ITrd1c2	*ITrd1c2	*	*
*k[f#]	*k[f#]	*k[f#]	*k[f#]	*k[f#]
*M3/4	*M3/4	*M3/4	*M3/4	*M3/4
*>[A,A,B,B]	*	*	*	*
*>A	*	*	*	*
!LO:TX:t=P:problem:źródło wybrakowane, brak partii	!LO:TX:t=P:problem:źródło wybrakowane, brak partii	!LO:TX:t=P:problem:źródło wybrakowane, brak partii	!	!LO:TX:t=P:problem:all\right:global
4ryy	4ryy	4ryy	8B/L	8g/L
.	.	.	8d/J	8a/J
=1	=1	=1	=1	=1
2.ryy	2.ryy	2.ryy	4.g/	4.b\
.	.	.	8g/	8b\
.	.	.	4g/	4b\
=2	=2	=2	=2	=2
2.ryy	2.ryy	2.ryy	4.b\	4.dd\
.	.	.	8b\	8dd\
.	.	.	4b\	4dd\
=3	=3	=3	=3	=3
2.ryy	2.ryy	2.ryy	2a/	8dd\L
.	.	.	.	8cc\
.	.	.	.	8a\
.	.	.	.	8aa\
.	.	.	4cc/	8ff#\
.	.	.	.	8dd\J
=4	=4	=4	=4	=4
2.ryy	2.ryy	2.ryy	8b\L	8gg\L
.	.	.	8cc\J	8aa\
.	.	.	4dd\	8bb\
.	.	.	.	8gg\
.	.	.	8b\L	8dd\
.	.	.	8a\J	8cc\J
=5	=5	=5	=5	=5
2.ryy	2.ryy	2.ryy	4.g/	4.b/
.	.	.	8g/	8b/
.	.	.	4g/	4b/
=6	=6	=6	=6	=6
2.ryy	2.ryy	2.ryy	4.b\	4.dd\
.	.	.	8b\	8dd\
.	.	.	4b\	4dd\
=7	=7	=7	=7	=7
2.ryy	2.ryy	2.ryy	4a\	8dd\L
.	.	.	.	8cc\
.	.	.	4cc\	8b\
.	.	.	.	8aa\
.	.	.	8dd\L	8gg\
.	.	.	8cc\J	8ff#\J
=8	=8	=8	=8	=8
*	*	*	*2\right	*2\right
2ryy	2ryy	2ryy	2b\	2gg\
!	!	!	!	!LO:LB:g=original
=:|!|:	=:|!|:	=:|!|:	=:|!|:	=:|!|:
*>B	*	*	*	*
4ryy	4ryy	4ryy	4a/	4dd\
!	!	!	!LO:LB:g=original	!
=9	=9	=9	=9	=9
!	!	!	!LO:TX:t=P:problem:mixed beam	!
2.ryy	2.ryy	2.ryy	8a/L	8dd\L
.	.	.	8aa\	8ccc\
.	.	.	8aa\	8ccc\
.	.	.	8ff#\J	8aa\J
.	.	.	4dd\	4ff#\
=10	=10	=10	=10	=10
2.ryy	2.ryy	2.ryy	8b\L	8dd\L
.	.	.	8gg\	8bb\
.	.	.	8gg\	8bb\
.	.	.	8dd\J	8gg\J
.	.	.	4b\	4dd\
=11	=11	=11	=11	=11
*	*	*	*tremolo	*
2.ryy	2.ryy	2.ryy	8cc\L	8dd\L
.	.	.	8dd\	8aa\
.	.	.	8cc\	8aa\
.	.	.	8dd\	8ff#\J
.	.	.	8cc\	4dd\
.	.	.	8dd\J	.
*	*	*	*Xtremolo	*
=12	=12	=12	=12	=12
2.ryy	2.ryy	2.ryy	8b\L	8gg\L
.	.	.	8dd\	8aa\
.	.	.	8gg\	8bb\
.	.	.	8aa\	8ccc\
.	.	.	8bb\	8ddd\
.	.	.	8gg\J	8bb\J
=13	=13	=13	=13	=13
2.ryy	2.ryy	2.ryy	8ff#\L	8dd\L
.	.	.	8aa\	8ccc\
.	.	.	8aa\	8ccc\
.	.	.	8ff#\J	8aa\J
.	.	.	4dd\	4ff#\
=14	=14	=14	=14	=14
2.ryy	2.ryy	2.ryy	8b\L	8dd\L
.	.	.	8gg\	8bb\
.	.	.	8gg\	8bb\
.	.	.	8dd\J	8dd\J
.	.	.	4b\	4dd\
=15	=15	=15	=15	=15
*	*	*	*tremolo	*
2.ryy	2.ryy	2.ryy	8cc\L	8dd\L
.	.	.	8dd\	8aa\
.	.	.	8cc\	8aa\
.	.	.	8dd\	8ff#\
.	.	.	8cc\	8dd\
.	.	.	8dd\J	8ff#\J
*	*	*	*Xtremolo	*
=16	=16	=16	=16	=16
2ryy	2ryy	2ryy	2b\	2gg\
=:|!	=:|!	=:|!	=:|!	=:|!
*-	*-	*-	*-	*-
!!!system-decoration: s1,s2,s3,s4,s5
!!!ENC: Andrzej Gręziak
!!!END: 2021-06-18
!!!EED: Leszek Kubiak
!!!EST: 2021-06-22
